src/food-drink/dishware/1F944.svg

<svg id="emoji" viewBox="0 0 72 72" xmlns="http://www.w3.org/2000/svg">
  <g id="grid">
    <path fill="#b3b3b3" d="M68,4V68H4V4H68m4-4H0V72H72V0Z"/>
    <path fill="none" stroke="#00a5ff" stroke-miterlimit="10" stroke-width="0.1" d="M12.923,10.9583H59.0769A1.9231,1.9231,0,0,1,61,12.8814V59.0352a1.9231,1.9231,0,0,1-1.9231,1.9231H12.9231A1.9231,1.9231,0,0,1,11,59.0352V12.8813A1.923,1.923,0,0,1,12.923,10.9583Z"/>
    <rect x="16" y="4" rx="2.2537" width="40" height="64" fill="none" stroke="#00a5ff" stroke-miterlimit="10" stroke-width="0.1"/>
    <rect x="16" y="4" rx="2.2537" width="40" height="64" transform="translate(72) rotate(90)" fill="none" stroke="#00a5ff" stroke-miterlimit="10" stroke-width="0.1"/>
    <circle cx="36" cy="36" r="29" fill="none" stroke="#00a5ff" stroke-miterlimit="10" stroke-width="0.1"/>
  </g>
  <g id="color">
    <path id="_xD83E__xDD44_" fill="#D0CFCE" stroke="none" stroke-linecap="round" stroke-linejoin="round" stroke-miterlimit="10" stroke-width="2" d="M43.4573,21.3227c0-5.0582-2.6112-9.1586-5.8323-9.1586s-5.8323,4.1004-5.8323,9.1586c0,4.6982,1.3551,8.5665,4.257,9.0938l0,0	l-0.8108,28.4123c0,1.1046,0.8954,2,2,2s2-0.8954,2-2l-0.0285-28.4181l0,0C42.1071,29.876,43.4573,26.0153,43.4573,21.3227z"/>
  </g>
  <g id="hair"/>
  <g id="skin"/>
  <g id="skin-shadow"/>
  <g id="line">
    <path id="_xD83E__xDD44_" fill="none" stroke="#000000" stroke-linecap="round" stroke-linejoin="round" stroke-miterlimit="10" stroke-width="2" d="M43.4573,21.3227c0-5.0582-2.6112-9.1586-5.8323-9.1586s-5.8323,4.1004-5.8323,9.1586c0,4.6982,1.3551,8.5665,4.257,9.0938l0,0	l-0.8108,28.4123c0,1.1046,0.8954,2,2,2s2-0.8954,2-2l-0.0285-28.4181l0,0C42.1071,29.876,43.4573,26.0153,43.4573,21.3227z"/>
  </g>
</svg>

<svg viewBox="0 0 72 72" xmlns="http://www.w3.org/2000/svg"><path fill="#b3b3b3" d="M68 4v64H4V4h64m4-4H0v72h72V0z"/><path fill="none" stroke="#00a5ff" stroke-miterlimit="10" stroke-width=".1" d="M12.923 10.958h46.154A1.923 1.923 0 0161 12.881v46.154a1.923 1.923 0 01-1.923 1.923H12.923A1.923 1.923 0 0111 59.035V12.881a1.923 1.923 0 011.923-1.923z"/><rect x="16" y="4" rx="2.254" width="40" height="64" fill="none" stroke="#00a5ff" stroke-miterlimit="10" stroke-width=".1"/><rect x="16" y="4" rx="2.254" width="40" height="64" transform="rotate(90 36 36)" fill="none" stroke="#00a5ff" stroke-miterlimit="10" stroke-width=".1"/><circle cx="36" cy="36" r="29" fill="none" stroke="#00a5ff" stroke-miterlimit="10" stroke-width=".1"/><path d="M43.457 21.323c0-5.058-2.61-9.159-5.832-9.159s-5.832 4.1-5.832 9.159c0 4.698 1.355 8.566 4.257 9.094h0l-.811 28.412a2 2 0 104 0L39.21 30.41h0c2.897-.535 4.247-4.396 4.247-9.088z" stroke-linecap="round" stroke-miterlimit="10" stroke-width="6" stroke="#fff" fill="none" stroke-linejoin="round"/><path fill="#D0CFCE" d="M43.457 21.323c0-5.058-2.61-9.159-5.832-9.159s-5.832 4.1-5.832 9.159c0 4.698 1.355 8.566 4.257 9.094l-.811 28.412a2 2 0 104 0L39.21 30.41c2.897-.535 4.247-4.396 4.247-9.088z"/><path fill="none" stroke="#000" stroke-linecap="round" stroke-linejoin="round" stroke-miterlimit="10" stroke-width="2" d="M43.457 21.323c0-5.058-2.61-9.159-5.832-9.159s-5.832 4.1-5.832 9.159c0 4.698 1.355 8.566 4.257 9.094h0l-.811 28.412a2 2 0 104 0L39.21 30.41h0c2.897-.535 4.247-4.396 4.247-9.088z"/></svg>
